X:18230
T:Vaqueirada (CT 044)
R:Vaqueirada
C:Tradicional
S:Msica Tradicional Asturiana, (C) Tello & Tito. Asturies, 2001.
S:http://pagina.de/MusTradAst <telloytito@asturies.org>
N:Cancin de baile de pandero.
N:Es propia de los vaqueiros de La Braa de La Estaca, ayuntamiento de Tinu.
O:La Braa de La Estaca (Tinu)
A:Asturies
Z:Cancioneru de Torner 044
M:6/8
L:1/8
Q:3/8=88
W:La gracia pa cantare
W:nin se compra nin s'arrienda
W:dla Dios a aquel que quier;
W:a min deixume ensin el.la. Ei!
K:F
|GGG GBB|cc2- c3|GGG GBB|cB2- B2z|
BBc dcA|BB2 ccA|B2G BAA/2z/2|{A}G6-|G2z4||
